svg/general/calendar-repeat.svg

<svg width="16" height="16" viewBox="0 0 16 16" fill="none" xmlns="http://www.w3.org/2000/svg">
<path d="M14.758 4.31401V6.60001H2.758V12.886C2.75786 12.9001 2.76054 12.9141 2.76587 12.9271C2.7712 12.9402 2.77908 12.952 2.78904 12.962C2.799 12.9719 2.81085 12.9798 2.82389 12.9851C2.83693 12.9905 2.85091 12.9931 2.865 12.993H5.984V14.493H2.865C2.43887 14.4927 2.03028 14.3233 1.72897 14.022C1.42765 13.7207 1.25826 13.3121 1.258 12.886V4.31401C1.25826 3.88779 1.42762 3.4791 1.72891 3.17762C2.03019 2.87615 2.43878 2.70654 2.865 2.70601H3.258V0.600006H4.758V2.70601H11.258V0.600006H12.758V2.70601H13.151C13.5772 2.70654 13.9858 2.87615 14.2871 3.17762C14.5884 3.4791 14.7577 3.88779 14.758 4.31401ZM12.848 8.12001C12.189 7.78656 11.4483 7.64885 10.7136 7.72315C9.97878 7.79745 9.28066 8.08066 8.70178 8.53927C8.12291 8.99788 7.68751 9.61271 7.44709 10.311C7.20667 11.0093 7.1713 11.7619 7.34515 12.4796C7.51901 13.1974 7.89482 13.8504 8.42813 14.3612C8.96143 14.8721 9.62991 15.2196 10.3545 15.3625C11.0791 15.5054 11.8294 15.4377 12.5167 15.1676C13.2041 14.8974 13.7996 14.436 14.233 13.838L13.019 12.957C12.7811 13.2843 12.4633 13.5451 12.0959 13.7145C11.7285 13.884 11.3238 13.9564 10.9204 13.9248C10.5171 13.8932 10.1286 13.7587 9.79199 13.5342C9.45543 13.3096 9.18207 13.0025 8.99803 12.6422C8.81399 12.2819 8.72542 11.8804 8.74079 11.4761C8.75616 11.0718 8.87494 10.6782 9.08579 10.3329C9.29665 9.98764 9.59253 9.70218 9.94516 9.50383C10.2978 9.30548 10.6954 9.20088 11.1 9.20001C11.6582 9.19438 12.1989 9.39443 12.619 9.76201L11.519 10.862H14.735V7.65101L13.678 8.70901C13.4283 8.47717 13.1493 8.27914 12.848 8.12001Z" fill="black"/>
</svg>

<svg id="Layer_1" data-name="Layer 1" xmlns="http://www.w3.org/2000/svg" viewBox="0 0 16 16"><title>calendar-repeat</title><path d="M14.758,4.314V6.6h-12v6.286a.106.106,0,0,0,.107.107H5.984v1.5H2.865a1.608,1.608,0,0,1-1.607-1.607V4.314A1.609,1.609,0,0,1,2.865,2.706h.393V.6h1.5V2.706h6.5V.6h1.5V2.706h.393A1.609,1.609,0,0,1,14.758,4.314ZM12.848,8.12a3.866,3.866,0,1,0,1.385,5.718l-1.214-.881A2.366,2.366,0,1,1,11.1,9.2a2.272,2.272,0,0,1,1.519.562l-1.1,1.1h3.216V7.651L13.678,8.709A3.89,3.89,0,0,0,12.848,8.12Z"/></svg>
